www/assets/icons/checklist_rtl.svg

<svg width="24" height="24" viewBox="0 0 24 24" xmlns="http://www.w3.org/2000/svg" fill='currentColor'><path d="M11 7.53497H2V9.53497H11V7.53497ZM11 15.535H2V17.535H11V15.535ZM16.34 11.535L12.8 7.99497L14.21 6.58497L16.33 8.70497L20.57 4.46497L22 5.87497L16.34 11.535ZM16.34 19.535L12.8 15.995L14.21 14.585L16.33 16.705L20.57 12.465L22 13.875L16.34 19.535Z"/></svg>

<svg xmlns="http://www.w3.org/2000/svg" width="24" height="24" viewBox="0 0 24 24" fill='currentColor'><path d="M11 7.535H2v2h9zm0 8H2v2h9zm5.34-4-3.54-3.54 1.41-1.41 2.12 2.12 4.24-4.24L22 5.875zm0 8-3.54-3.54 1.41-1.41 2.12 2.12 4.24-4.24 1.43 1.41z"/></svg>
